X:1
T:12 Gesänge, Op.1
T:In meinem Garten die Nelken
T:12 Gesänge, Op.1
T:12. In meinem Garten die Nelken "My treasured flowers are dying" 
T:Robert Franz
T:Emanuel Geibel (English text: Diana Udevak Ashton) 
T:Creative Commons copyright waiver (CC0 1.0 Universal)
T:Creative Commons copyright waiver (CC0 1.0 Universal)
C:Robert Franz
Z:Emanuel Geibel
Z:Creative Commons copyright waiver (CC0 1.0 Universal)
L:1/8
Q:1/4=92
M:6/8
K:Bb
V:1 treble nm="Singstimme\nVoice"
V:1
"^Andantino"!p! d | d2!<(! d d3/2 d/!<)! d |!>(! d3!>)! G2 A | (B>A) G (cB) A | G3- G2 z | %5
w: In|mei- nem Gar- ten die|Nel- ken mit|ihr- * em Pur- * pur-|stern *|
w: My|treas- ured flow- ers are|dy- ing, the|pinks * with crim- * son|crown *|
!f! d3/2!<(! d/ d f3/2 f/!<)! f |!>(! (=B2 ^c)!>)! d2 =e | f3 ^c3 | d3- d2 z | z6 | z6 | z6 | z6 | %13
w: müs- sen nun al- le ver-|wel- * ken, denn|du bist|fern. *|||||
w: with- er'd, neg- lec- ted are|ly- * ing, for|thou art|gone. *|||||
 z6 | z6 | z6 | z6 | z6 | z6 | z6 | z6 | z6 | z6 | z6 | z6 | z6 | z6 | z6 | z6 | z6 | z6 | z6 | %32
w: |||||||||||||||||||
w: |||||||||||||||||||
 z2 z z2 |] %33
w: |
w: |

